src/frontend/static/img/products/kiali.svg

<?xml version="1.0" encoding="UTF-8" standalone="no"?>
<svg
   xmlns:dc="http://purl.org/dc/elements/1.1/"
   xmlns:cc="http://creativecommons.org/ns#"
   xmlns:rdf="http://www.w3.org/1999/02/22-rdf-syntax-ns#"
   xmlns:svg="http://www.w3.org/2000/svg"
   xmlns="http://www.w3.org/2000/svg"
   xmlns:sodipodi="http://sodipodi.sourceforge.net/DTD/sodipodi-0.dtd"
   xmlns:inkscape="http://www.inkscape.org/namespaces/inkscape"
   version="1.1"
   id="Layer_1"
   x="0px"
   y="0px"
   viewBox="0 0 1280 1280"
   style="enable-background:new 0 0 1280 1280;"
   xml:space="preserve"
   sodipodi:docname="kiali.svg"
   inkscape:version="1.0.2 (e86c870879, 2021-01-15)"><metadata
   id="metadata17"><rdf:RDF><cc:Work
       rdf:about=""><dc:format>image/svg+xml</dc:format><dc:type
         rdf:resource="http://purl.org/dc/dcmitype/StillImage" /></cc:Work></rdf:RDF></metadata><defs
   id="defs15" /><sodipodi:namedview
   pagecolor="#ffffff"
   bordercolor="#666666"
   borderopacity="1"
   objecttolerance="10"
   gridtolerance="10"
   guidetolerance="10"
   inkscape:pageopacity="0"
   inkscape:pageshadow="2"
   inkscape:window-width="1908"
   inkscape:window-height="2096"
   id="namedview13"
   showgrid="false"
   inkscape:zoom="0.7875"
   inkscape:cx="640"
   inkscape:cy="386.03175"
   inkscape:window-x="1920"
   inkscape:window-y="0"
   inkscape:window-maximized="0"
   inkscape:current-layer="Layer_1" />
<style
   type="text/css"
   id="style2">
	.st0{fill:#013144;}
	.st1{fill:#0093DD;}
</style>
<g
   id="g10"
   transform="matrix(0.68883948,0,0,0.68883948,202.55543,170.76345)">
	<path
   class="st0"
   d="m 810.9,180.9 c -253.6,0 -459.1,205.5 -459.1,459.1 0,253.6 205.5,459.1 459.1,459.1 253.6,0 459.1,-205.5 459.1,-459.1 0,-253.6 -205.5,-459.1 -459.1,-459.1 z m 0,848.3 c -215,0 -389.2,-174.3 -389.2,-389.2 0,-215 174.3,-389.2 389.2,-389.2 214.9,0 389.2,174.2 389.2,389.2 0,215 -174.2,389.2 -389.2,389.2 z"
   id="path4" />
	<path
   class="st1"
   d="m 653.3,284 c -136.4,60.5 -231.6,197.1 -231.6,356 0,158.8 95.2,295.5 231.6,356 98.4,-87.1 160.4,-214.3 160.4,-356 0,-141.7 -62.1,-268.9 -160.4,-356 z"
   id="path6" />
	<path
   class="st1"
   d="M 351.8,640 C 351.8,530.2 390.4,429.5 454.6,350.5 415,332.3 371,322.2 324.6,322.2 150.9,322.2 10,464.5 10,640 c 0,175.5 140.9,317.8 314.6,317.8 46.3,0 90.4,-10.1 130,-28.3 C 390.3,850.5 351.8,749.8 351.8,640 Z"
   id="path8" />
</g>
</svg>

<?xml version="1.0" encoding="utf-8"?>
<!-- Generator: Adobe Illustrator 22.0.1, SVG Export Plug-In . SVG Version: 6.00 Build 0)  -->
<svg version="1.1" id="Layer_1" xmlns="http://www.w3.org/2000/svg" xmlns:xlink="http://www.w3.org/1999/xlink" x="0px" y="0px"
	 viewBox="0 0 1280 1280" style="enable-background:new 0 0 1280 1280;" xml:space="preserve">
<style type="text/css">
	.st0{fill:#013144;}
	.st1{fill:#0093DD;}
</style>
<g>
	<path class="st0" d="M810.9,180.9c-253.6,0-459.1,205.5-459.1,459.1s205.5,459.1,459.1,459.1S1270,893.6,1270,640
		S1064.5,180.9,810.9,180.9z M810.9,1029.2c-215,0-389.2-174.3-389.2-389.2c0-215,174.3-389.2,389.2-389.2S1200.1,425,1200.1,640
		S1025.9,1029.2,810.9,1029.2z"/>
	<path class="st1" d="M653.3,284c-136.4,60.5-231.6,197.1-231.6,356c0,158.8,95.2,295.5,231.6,356c98.4-87.1,160.4-214.3,160.4-356
		C813.7,498.3,751.6,371.1,653.3,284z"/>
	<path class="st1" d="M351.8,640c0-109.8,38.6-210.5,102.8-289.5c-39.6-18.2-83.6-28.3-130-28.3C150.9,322.2,10,464.5,10,640
		s140.9,317.8,314.6,317.8c46.3,0,90.4-10.1,130-28.3C390.3,850.5,351.8,749.8,351.8,640z"/>
</g>
</svg>
